-----BEGIN PGP PUBLIC KEY BLOCK-----

mQINBE6ewEABEACYt7MVRJJeyFsd4dMlP0bRE1U0A76al9te+XoalkAnjwltJPgy
xnw2eP1m+klK+HJc9gVMIkg66LutN+c0x+qFf08UT6dk22/jULYnodkt1sUgAxIB
cm6vdFif1mXY1WKRRdDrKsZqTZ5dw93Nd8T5w493Ll84ECl4cI9m5ZDDf33JHnph
aR7JDCQwT2mxWrZTQzmGawhcFu3tLqQ93SuPBFx6DZWxyU4HT3UCQN89SUMdkiaE
p5IYMvHnfdeP+oN7FlfCumqZGIl6Zm3KE31jfm2KiOwIXZdRliDHHGEXD7onnHIb
/4WaP02LSvQFDAZ7+KQtnChR6tzfsdnWSKjSJmDeIf/qYzieOxEz5AmdroW6VLdS
yBH9UZ11Is9Y6/vJdMJXvFYMGjTw64SDJKsKaeVNFBA4p/JBgFnGkl1Mt7JBlaYZ
JwbE//42vC1HvHF0PHV5YOrhl8DDntWPw44PSH3qjyLgnuQ5WGgAWCO9foDSCUdo
sk+J+lhtkmL/N4p99sYd3QSw3zNRmJf4snclcH1IBOUnEaOE+JP7wwclhVmeJeSw
tMmQlNCx6QN/zzj1MoxVpwoAAkFIV8dmNi2yvIHDHvaqOkCAJI5Y3WzwIENlUl65
vaG0zMKOeyPeLd/EDdwILlssLslf2kCsulj6fjCCFN7Gvh6k9hIwCd0IbQARAQAB
tCxKZWFuIERlbHZhcmUgKGtlcm5lbC5vcmcpIDxqZGVsdmFyZUBzdXNlLmRlPokC
OAQTAQIAIgUCTp7AQAIbAwYLCQgHAwIGFQgCCQoLBBYCAwECHgECF4AACgkQpVJr
m7PNTmr+rhAAi1ek57JZ6zt7PfEbiTa2n5f+jpWmyCDFxLhY50Bt3haP3knek+Ak
bXHgw+rdA5SEVMax6K56LXppSk0cwLPF9YNS3LYQ4jKsDF59vD/58Y8AyWY/hy/n
UFm7VLz8hr9Nm0pGebw255RYSBNPQWythk40zAgxhX+z9sTtxCEp7qMXKBRHPtwg
rtZRCbz93NwICY/y9PzcUnCWPuIvSkHCiSqeJI0pn/XsOpIWjNCWUU6+McB/uh5I
RrNimusaDJJujtJRN+2qiQeYMaqOUuKrgWJ9+KmPgJqxOu8KohV/FPF9PkGMakV2
AUwcvQvSdkTf+XQ/pk0t0O406sd4RHotxUg1dlQNTaqmvrh79vShgtJH592rEh5g
w/U3YLGD89bnjdyXthVTcb9CYXeGv0pTX+5WmLuo5BMKStUMttQaO03D5IBVRIU0
ZuZv1A1TLAHi7qx7onC+126GDODdCUpu5+PdJwumxWdN3qXrdZnSf6ZauLBhy+aG
9oe2/ycRNtMp6xuGymzoH0C2nuj3YEnUzRALw4lzX7pk2opWx9HbRzUUmHJwxBLg
beM+TdpqCVJbEpA0vYu/8YaSqWXIFCKQKPIQRRSQTt2locKtD1HiJOtD/nM7WO5M
XWMSx83iCG0c6DAXkaNMqVWiu9JIYlHV98o0Q/EbVRy7BAyxoiwoUZuIRgQQEQIA
BgUCTp7GjgAKCRCGVojQOPAvyK4BAKCMUUvaX7c0nUfrpdQnpLRKLAlb6ACfTKFJ
JxBbfagV6TGSJfGACIZBDTuJAhwEEAECAAYFAk6m00wACgkQ6uPBXlkxF/Z/Aw//
cMFZwdL+9jtbWiWt6Ks6e/6DZwZ4K85OVk+3s3gLCjLHSmWaDKVv4kFKP71dfsU7
RF8kxL1sQb2nLy9MWbkybnoI8Lv7Hygbjti4rF6Wqq/FFxa1d4dlS9Tu99xdTgEe
mdEEKXXW2grAxqBpZr7Ocr3BS3vTSPn78WBTaqAQyJGX7JyQGRbG7d8GbH0/cStV
LxHUL6U/sudwVDdfXGRjiNMtcC9RH4WtSCixSuCZ63vDIgJQA1YVt6kBFRPrJmsf
eDPIXT7fZm86H6CqiNeVwd6GZ3RMrCVY4Z2yT7S7M1G2ru1xOBk53vOEwJW35wDX
5l+X1DwnH5xkNestA45NrU5dj9k7U8Tuyl7CuXGf7cxBAgWfyKHxxcg6FWmtqQ+v
4bd1puVlCaTQ4wi1P+VmQCoFZ3V4s0SwXUMA/1q1cEAkMnifjvKdAq+Bul6HS2zf
M2sBfWz3h1NZh08Q7JlassfeA5DF9OEDMfMeJg8zQDB16T+MXiwE4+IL3MT7OMEQ
r64k42CnzEpn69EcJyWHOOchE1nkpQo+/sD4mjPaW8bp3yKd3f41dSdwsNphMus5
pa07rmYr3fmM+5TNCD9VEjDN82+hixMZn6OknTNqD4WXyz2xsU/uVZru+Nxu6LLA
+WkrLBeSw3sRQwcl6jEVmXpvlBbKzh58UTjPw5pkKnaJAhwEEAECAAYFAk6nGYIA
CgkQmOXcyBZHtyprehAAs7yeV9aRQevGmVj8QTa5dppL6Oj5lYQxh99XcipcVHGz
VKZvicC+4GAsN1PxlTojpFkELsK3GigJ83tBSDH43iG637AfBAQqZWCbCC3d8UrB
FJNA7caphc2Cw3QRwO/jsh993cyvcg/VPIZ/OjdIi5vofr6t3bYBtwB7QtxpTtFq
RW7UaLusnfvQU1NINH4ZiX+rtKK9QaDG8DJzTcGNV6f6bkK0/uC3eIOndwxouLkf
s4QuMo1KvkwdTRyBFGb8eM4WfzR4vyoOhchNBHhLBecDgT1kfaej5QnD30aLNFn6
7V9eoHKatHRrwprqYbgJl99fkvmMWa5DbDlbcF/p4l3gYTYKd6Rj94JCuYabnZ/V
5eqEhGx9Sfdfx5J9z8zOCu33Xnbi0EyBugnv9xeHRFM3h5/zUMWwqJfZpqAD6/89
6Yp3wS4HW0tj1o8UmPHipNTGJGCdgeHs78J4+Xv/wRwzRvACNGT6tRKxA1XL43nw
WTL/EBNJpv4Ww9OlF2JAjTImea4yonODbXwTx1/1r3z4utKkgEim6obtiG4NTEUJ
28W2Nedc0zZ8BQZe01SsRKBmpiOMZEuLDyNwWFsJEhqlhWs50yxdHaZNnNIP40u2
HysSyjRijr+csOV5AWqupPYg3gAGt4FBMyChWy1fhUeV1mGfi3p7Etw9WT5z7aWJ
AhwEEAECAAYFAk6nGhoACgkQc0FhntM3FgzXUg//UpZqLMbcJDsgB+n9yjnFvrmO
ymVLC3AAtjNPC1vLodP+aa57SumYJ0tX4vVkH+STaUSEt0c2T5NMbUgdJlqyMnyJ
+vA2yHFlRGgMcoJX2kyhAMzKvgJSnr+ufARzPog9LVXOBEwuZ+GnXUGCPigmw4y2
+EVmJ3BONvj8IeiS1G3bMYvP99CC9uSvqJT7TBEwvbQA4M3I4WGfSYBA957bXy2O
/Gpnex/6y3siDOPQtuOXW7UF5YATWCa3JcoLxz7NITGf17LNxioWn5GeoyS1d5VB
RqK3bgQO7ZvWGPiclpEZ3rntgiqOopOqZl08odMbdTBeCIrm9vY4HagAlJbNgDjt
Yjr7tiA96g5PMXubXqoy/OUfo6XRWpCeF8/apn33007wkugkDc9MHfOhv5HGqLnN
SgnVvEUx/8nAj9mdSf+KeuAizXpmjSYe9G7uxG6AyOZu0Vv5wnZuApd8we5/8849
yfDTS/W3K4Y+TrKeF1QvRI1ScSEhbHs/SDiNeGAFw4+5DprVKCpqVG9BAYQP0Qzd
u9pyHG0h/KGjbwATxx5LBAidf6ZWxMjgVYkqdaoGsDJAiNuKKloYereVs2jpFRDE
s+8R0N6OnkpkmwJI+Uzd7g/XlP5rxiBrGKazOO2dr3Jef1GfG0XmHY3VJJPo68K3
ru0bo0rUJsNxn0U4JvWJAhwEEAECAAYFAk6nICEACgkQ+7dXa6fLC2tYNg//bqU1
L/Z3M60dWvU6VojqvZk+PjyE3tmr7qRquQrkW3CSoB0lfaMlcrCZw7PLQRU4hwPm
7VusuzAYn+lTDRgsHYbfwpnDMUoEHOE4+cvKNcpi6NAR8+2iUQ5LicbjudtKFv/g
Qlgq7daP9tPX4Eh+vrPk0tyzFCaWU4vBfM34t0eHaXUs027olCFJwArQ+SaSaBJt
LN80/PuhCQAU+cN13T1p2X4KHKkPoxYrPFvXqharuhtNuNOAFa/2UZ7MksHqQ4EZ
7ketP0KBOivFryF2r9T0W34lxgasEWhmaezxHDF5Wniv0nXgdxT5iBrf4FlQNz63
lfVd8BirIyiUzIMJWLDcJVluXFTMj+YGA+HeClE9NKrfnKSkdmFBb7SdCZSkKzec
sslcuWlnhktO0OpcGgg3MsW0748U8uOcK7Aui322lh4D9LcO4kwpGp0wUHP+5sdd
BEmRtZaivlY7tee++7NgxTVgDu1Lf7dJNm+ewdY+wq+1VpNmob6toaSKVr82fDMw
poPESCnWk1ytXZGEj0cXJXsVWBmU3l5cF6UpF2RCyrMNo0nmRU3CgyU4VoOEj7NF
5tMsr3mrcMGinoLK2YrimyJA6EVKL+a0zKmaaQsfpQkr7ByeGB9BGT5RR4+x2PZR
Kj1sgxCdfvvXu1j8P+VGNoRU52mAEaYgK6PPN1aJAhwEEAECAAYFAk6nI0QACgkQ
jBrnPN6EHHedOBAAkx/VyBzO1Nt/bmrk/4bzvgvaRMeUAMbqDjp0I5ATsucuKp3a
QuGxsSuOLQDd+6wc2mwHBgk8gtWsjAfvmR0ErB4klFKBmHj2xWucIblIlEC1rs/x
U/mKka9bhZpJq/N5kpvecFiVxmx7SHF72w/1dUPpFW0OcLIfklabRqrr0vlws49N
QJLuc95ESoa/haHV6rSr0Sqy1FSif0NjOurh7qfENbdqmiACcPeWtZFga5wZfrs0
q8WoiAvbunAKiDv53OgoRibUJBN0QP7TGNPiRx8eRrIY/sC8e1dy2LywzV/cq/6C
vI/gpruJY+DEG3b8ueaPGRGMrms0xff/x0pHUQBMiCPQNZn+UNpntQgYfHpuP2UW
XURURC2bq5N8nrSUwifi+aGyv6je5qgZ9/04qsMUZ2j12U6r0oKDsmpDvTcXRL7l
DpYotqJNOUDYy0vCXzmC6GKq30RVtuAWxq55loXn9qWSEH90K71Aft3LphcmK3Nl
u5DtBKUDH74GcWnV3wULF/QHoL+fX1tMReWDdZaK0YF8N3XI9HNuNJMhDUXhplkG
lCt+TiGgugu/CjFyekh1cyTMrEfVqRuX17Ag2ouFL1Rg67IfdYBHTufoyjNJSyQN
zp1SdCzCkloazf8G3qOamQpLLPB8zxEdOHavE0sutWaR+kjnlxgC4mDuwT6JAhwE
EAECAAYFAk6nJOwACgkQqE5/uaXy42xmRw//TzDmUbxf8mRS4CixyieAT/e/Ndg4
92XB+zIlx46puccjT+Mn4Q3dwT6rkg/tUrxNoQ7CDn6EVFqpj+ZtDgaW1jHdWjuJ
RgKYD7XS+WGz2xFt3c/ZtAnl9DggS2sp/kq1ddP7yZwSDMrYnMthXVk/hkrTSLk8
7QX0Bmlh/+fZup01GI3aUDLrNbJt/RYfHZqSLWnAAtIrI/PumncL+O5w8qtod2p0
/fPjilwNH8k+cZ2dgpXT/QbUpeVgKEv6HYbm7aoKeEQTaLcbonyrtTxQbe1igKQu
YsBLzcksfY+JDYnYlEMZGxmnsNv8HgfMeBt2PTU79G357/fpvMvLVfaUiU1GHrki
WMM8EEQI/1drXd3IGD0YcrlThxUC1s2T//5olQGhzd1fAafUHznCGtyGj8oqG5WU
/tp/LjZamsMK403zxra88S8e7QThPO9Ji5krLFJgYykfcOWpxsefM5+s/m8hmoqx
hRBPimNr/SPMKDZvpP5MbWyz6ivwFdmSlcNyyXTOgTFi7v1zS3TWiKjkkBh2KHs6
17BK+BePqMWOKwfz+3Yj+eRHDaNZjLxsaLNJchP56PHGkceV5pFTPCUboY1AX+Wy
DPESw+LkYSID3Pat1ugu1zErlq2p026kuG50KxiPb1UBV0AWnHWBSLpd4k1AbGxx
QRf30yH8pxVyWEiIRgQQEQIABgUCTqcxYQAKCRD8TeTJZT12J9eaAJ9EkdydrF8S
XealoY09m/P6y7oxDACcDdqg6p9MOeRtBoftoBy/e08YFNaJAhwEEAECAAYFAk6n
MWUACgkQLqdrnCtGbZ3QQA/9Fm+hInLvkNTFOnci4p5F1zL9DTKoRB80iEyv/Sfs
InDMsPTgeSAlKb2BBFywsTeyrqDMzG2/g3HCRXMkO4NwBD1wbPepuBR1PQpUeTnk
4WlQm/DWMAYmjNa9zrZDr1/tjxsihM06U1s+j7ZuhkquU4V+MVbii6kmnvRSio/m
BPBtbbfFJxhsMCEPyPjw+sK3gav7RRDLehEKhLlLPKV0xNiIgUrgLA+lgjlzS3XC
7xBVde6Ab/6s7ET0LYLej3n1mK8NTXAssr/Osglzo39S6G9n5Un/lW+cymRPexBi
/Ytya4zk1kljPAsk3sigS0I9wiZbMrsTAJa3zYNEP01zV2KGIWsaLkM67+qCrBO4
3MHXsIfMQ1j7vdlZDTfhsdT4MwF3BuM/hyIdauSoz2r9C7JdWm1bT+yGR+Zv/B/J
AiFQZxHwPhWlr7VxgFWQsGgDmAcybEVrT3DJ6GqJlXgQrZV8bOwLarJj6AVdlMK7
dPRnyUTW0HQXWs2adtukPiumLnHidMMO5m3FknmYEu9zI1HS3u8JWgDTHn12SeLL
4pgEnn8TbJfsoo/7lNEftnS6PJuE/psQTqKMSSZZeLH2SbT2ovU5rI9BEygJQrCe
1SHHP7OXpw0VkGZs2IWzibUSlDQOJW/djfAEjfs8H272nmw/PnZP1iJwiVRF/jAu
DUuIRgQQEQIABgUCTqeiCAAKCRAxR9QN2y37KSqwAJ42DyElCAImKX5HYzoz2P//
5xUWvQCfdxY9RE9wSu/YMRoC663HEtvHMjqJAhwEEAECAAYFAk6nohUACgkQONu9
yGCSaT7XJw//e1TB9cYfzAzf+cdDlr1+q/FhtDwsWdCpavNDR9KWKY6LvmoFsu/p
1+9nEmYmvbGl70kgSzmR3XE+WhTn2o/JoGd+A3S1BOWjNOkkl0/jB9LcqZJ8neGt
HgZRwkT6KRYN6jl9shB5AVQQU0Jduzo9W0mrhoGniFG99XQcz2zbfBSJBUjHOhoZ
HoIvo2UhrGSfEehoiJ3PDNYA3IkyRZb3PC9KnL4tP+DKVNdtTgkce8iRO0y6sqts
Iqs+aP3VT20s1Nb+skBvWDLR3IrFkdELcekz29FFHZqPsMuUDeIf+ssw8VRH8O1p
Qy6i5IDquzdVLDBK3qEJOTQ7FuVuQk2jge4ejO7L7vcKfNZE3lGWR/cuWElP0VJ+
32tFZQD81q/5A+pwEJ0KcAtGk6k7xa+pEF6+SBaSGTTowwtnZRh+cyw3Iu2QW3tw
hKEVCTfBw7aiyYyZ6ksstdl49A7KLs2yb238mvsb3Yf2biMt7q0Vw4weG7iUWtJF
eYl9v4JAu/2APgXdLl/jnJ3nhTJKHbJlmYO7VLdrevvIVkOove2mytAjMIHax+Kj
cb5qeEF0nNdY4LUIZoGvrkS7NX27Z5kKfMz/+nGT62noD95tUvG4oby+EUb/vSaH
mtg2D1wlyLQoncrE6/7xFtedlYcfvdN1DdMe+RIWkCdQ9ma+OTT0oBaJAhwEEwEC
AAYFAk6n4EUACgkQvSWxBAa0cEkCIA//Tb5UyE5n2rYwKUmsgKfgnGOSLjMmAPlC
fWcf4OqiwFKUlVKAATgJEKai42ge44/R/4sVJMgEEqhXh2m7xVL4wVbtZ3cao/9r
McthXrHiHHM2pIx9xfMjOBMNVhQJYNTLv1390ps3abDar3M0klLrgAh2N9zgvLNW
CC0g/Ou3rUk715Cap5A+Ps4SEDMqaNw2DC4blr5NhaJMillhWBMYFx+SrecllO96
auZ8l95wyAEfS9Xb09AujoO85ZExlw6Yn3+REzD4XaGco9P1iQkacVyEx7kQAUlR
8NXUS0Q1y5CG3EaPgzweRSTv6QlhVZOFrGrRnKzX/6b69LXX6XPVicUZnyriN38S
5D19/lVou0FOKQJoGhjnF3yLxmUlXdtqWVcG6HJvBAjZixyCkKt2nt5RmLCFWQYk
Tw/oGw4yPyH9xYid/gG9TSBl6DEkzGEcULeB2yqANr7ysGQ79DMip7QL9t5AicMm
Jac4y3L/LVQFObHVonyxCLKWCjXXt+AiBfSXuDk0M8emFbz+6P+cpcOyiReDQm1l
MW9S20J/g1hQWYG4ODE7uX1Akc1PFvlfktW7VUJUoOKp3h7PQRbKX62WZR20u5Fa
FSIDXh4+N0qJT1ScTasuo2IyBWEt8dUj+HyvR26JCv6TvE+7NM4uWckjk1yGSqfT
ma05P4WYZ1qJAhwEEAECAAYFAk6oC5YACgkQHOUKkwgYupy3aBAAwniouQW/Guux
4nKzNpClSBESbj99thqCzfnq/GUtohC20zX19BuXYXleUkYVtY3xMjnYVKC8vba1
eikCHHPc/lqFJbgu6LSzL9EOTqt9Ir5gAwSQ67/X2OvLXDXiE41TaCCxEYUSDnLg
JHv0kSWkVz1JwY5fmEHpZJGW2sU5mPj04yVH/z01mpyMde73rs4sue78eZIYUnfT
3xqFahc+jnpWBNtAYdD8yLpGCTjLa/q0/QJ/TunbpXGl+Ky1wH+Y6BWhppeiY09z
ajcEav8l46Pn1J4ed7N6Fqaz8PphF/J4tJo1JFoWRp3LyeP+4/y5jbjpAxwk5ova
TYoU1XXN6PR3vjXtbZe+NiBteA94aexP9vnz8K3SoviY/qnl3VsuVx1rgo+Y+ffY
VqLkv6gs9pP4pfg7niDbooMWAyIL+ScBEOSE5xwLBbZFT6sfbMIiQM6z9vk56eO5
hobVI5PahrbUNdeSc7TmnqFlzSphPUPJsS6FVH5Fs2OeI/W76V3kwLO5ijIhweaX
SftUayKgmPOrvyAZQhqdd1v4gdBZxWOaJnnUqj9057rz/bXbPaIoN3oZRn581VFt
kMynDb4dc65RbZolCSIlXB0QpNoKNpxeaZdRqQjI9X5t/ob8Ns9fbOETVU4GAcaw
sNN0APXoI1Ef3wNrks+Fm4gU6Ehjo4CJARwEEAECAAYFAk6oETcACgkQqlA7ya4P
R6fBsAf/eIHPd11VP22lOs6uJ0B5E/5i+w8J/5A60KeByWvfURWAMcCSE+omWP9l
fUm0ibpRXfHqEe9JoYQptBG3Gun3FnRpC0teuO7r5Fa7444Mm+KBYMymuBbKqoEu
y7mNpOS6P5FaRgIWESU2XKTD/9icjiyh4Qp3JAFhle6b8rIfHyfRbozQH3l/1Dam
nM+mNkIp7wpNmDVmQLKNnuH0G1Y+DhuLBIS2Vxxlork2tV9jROuQhbECIKJox42Z
YJodJqwMR0jjmi1kZYf7XgU97J34CwzC9BcetK1vafDvbsFB9XQX5MFq1/WZbCp1
adxK62kKelz6p0J12rGHxSOE5o8RsokCHAQQAQIABgUCTqgRlwAKCRAVvIM0QwON
jD9ZD/9u+arslmRdAvhbwIKwHVz+M5cJGd6QRqEbv67Czhkb3bxDcvry6jalJVQR
6AKSWmsEIfL+BWcajPR1xstKI+XAyJ+NmGL3X//tt0zY6k2CQwWBg4z23K0V79m9
tb8YdLAuARY2fGjphzSUDLHnLMHFvYK1R/QNtDgQPGoXufVx+xzeg/IPkdwMYt0Q
/8bvxJStBDFRXM/+y46RMVhJ4oaLDLHi9lvAdVJhDJW/rXlcjrdXki7cOpNUHtoR
vU6XF6YiEZKwokfY3zltHzAkBME+mfZb6sxgQwXc/Ontu+WXODLZwHgHJKEfHaRI
p2vvRUHi3N1nM86aEmIfLQCtkHJvlXLWq1Q6DqlxaOLTy4NQg44tVE+KPTBcaLjP
EkMWZwmc8xD8NlyH9621OQHeLq2wdxSJWTtOFr4r8t8kIn2QFc0EDAnazIMkhxYL
FHIAYzxDIM43mXUghgsO4g7bYXjpH26cI1Di58v+1ASUhXUyZfPJBi6mSdWQ6vSM
NBdvWxkOEyUYkDk/YX9L0F7jY0asciH4PLko5Ex3/CI1j7Z1EKSCcsH0ABE3wWrq
UlFAERYNFPugtklqtw5VFLZKl3+IzCKdohcvKeQFZT5i/7gdCSMpfTzSJaURERj8
KjyXn880vDzAnViteBdZG9SZ0DwuDgmscjj0tsdnka1dAzMdQ4kBIAQQAQIACgUC
TqkPgAMFAXgACgkQgUrkfCFIVNa/CQf/RRpe1M5vPIIcJZWGDE8+qdnzgDTVlOzR
ivGT5h0K3/h3g9ygY2a+TJe4PFHNCuy7kWGxJZ3MSYPJ4BY4vkNqPW/0jLjMcI3m
4hw335OVIISK75IdODR4IwRUP1OblOYZ7cZEc87XCWE0dhwwO6s3TlfMKtTD5xAt
0br+HlWA/g3h4tAfdVfRFAJ7i3amwKL33/1VCWvPay5ACyLeG4kaT1U+O4UsXPNM
bOksFLkbpHZ3drGPbhChGNtNOaK3IOYmxHixpA0Tq+ayCbqqFJ6VzR8w0EUISr/E
N/Cm3wD8Z5y+haemGbklR0VVi70SCV2Px/+WQ8DiAWPsdqml+/XBcYkCHAQQAQIA
BgUCTqkqhwAKCRBsuookORlo/kDWD/4qcXYKmD+Qdz+gz50npYnHZoFDbCDfqkoP
TysWPh3a/MoJ0cwHhUTMRIJwBRUkGzrLskSIpCDTQPNdj+3Mwmw14TANgR2FvivE
ZbMeKDIwR2psyKvctNCW0dYTija+aA41t1W9wusRzA5TuIYm5/iMSJYHa2lXj2D4
1AXOKQtW/u7WAca1au0X4v0KeAawMH1DxCnfBesHriAAbbS3wzSN8fccnSzEc3nG
5fw6pLwi2lJNHcP5R822Jc/+C/wGl/Jd4TAqghk7jgbn4KS+c+5+6Ng5QNSVJHmh
1FZJv2Rimkb5F+ctkeHgSVpzZVQL0YOYXBTSlxBInDMGStNl2C6yeRd1JXc81TLM
uOohTRPQ9GQqAbNcMlNjQibGGJvcBRvsuQy5Cpxl8qyyeiVDXRGSEfdJwsQJlc20
q98LzgI4QswIZHiXo1DZDqT5X2es3mzoZGNC+z+OR2WEZEjkupupQDwLXUjj2Zrs
14TG2s1RKRFMIxWWIEBxnuvP4f+liz0R5lNjpryy9SFmVwoQct94/ezNLFAV4nDs
GP/CtzzOIZHe6i9TnwJv1SDnC6PVMTvGSYUCNArYIJC6O3EYeSZBzPpHBwWCLmJ9
KPOXw1zyM7pKLsDVVczqFXU2/udOzfhDBePIg1KEsUgfFvLCfqav1XUThKVE7Db4
R1qA3zMP/4kCHAQQAQIABgUCTql/LgAKCRBsMYBUPSkppLC5D/9+0FxT4mW3dWIz
sXOF+EIFrv6Oi6WIWb6XBODK8j9avk92fEIuA4yZWjCXwFeWQ2h7ogXS12mpnV0Y
wdREtHH+0S8wIGQ5g4qQ7Qwxz98SuZU0K06JnolWKtSTR6xTo3kDGn9haLwnUpTn
XQmOdWFeG2FOy5dDhpjYHrwKTTuMBvpJfX2dlG8BKCFA+5ACYPmeGHhiTKJ1/uI9
YWwlAd282j7svsgO0hf6hTc+Qn+oJfrgA7UFnBd96zmN1RVTZCij/y6RhHkVwgYe
pKAGP6XsiKql+uafwFdCboQ07x7DE48hWDUmsWwSYEgAw1DwJRwpBYAEKZuzDTSh
8o3XuiE859nihs8DaEz4heGWNld14CNPH9lxdMci+eXGxs62nta6i+MaJazNLBup
YFMM7CO9m43xbhdpNH1pS8xWkSjbgBUBE6wWcWias3ERyaT5rxRwoLjAVEuUITSY
ByMaRJkLWNE8XqBfX6pU+1V3tAyH0kvCWAyEQZbcDhoQC0eZ9xAMMtREYRFpMmeU
+gpyQepovlAOmKtBlvWXh8WjmQ3hHZzCyvNBQS0+FMYwyMDUp/eWU1D+88EJvRzq
VA3yVivFS9uY5e1O62w/sDHimngiiA1OIOgYSHeczi6DRx/yWJ2YPm22/j9uLw0y
iFX+4g33K8ys3gMBvjwarxhfUGo+v4kCHAQQAQIABgUCTqqDzgAKCRAH0EU6Frc2
F1J1D/4gaCPar7DavRmISAu+EeK8MVQpBLIvvtOi4tfvbThL3Tte/RsvfUbHis6O
9S8Pb8Y/JDHlSve3So9oiP0EMqspFb/sre8dgAxF5uH8Bx2asSICfU2V/D0snt35
UcGp5N46/qt69CXYCVjoQJrArl/wfD7jp8YU2Oc0W5UHtP5FKuMl8CpannYdT4Tm
yS3X0B4YTw8mgExO1nWVuaaH+w1hP80XyxWXYg4s0o+wWlpdHXERUAtr1rf6NEU/
UsZZ/+UcRqpZhwxyWN78afeuwv3vi9MUnaAULzTWchod/edl8eDIkSfFg/eHJa+a
2tUsOBpk7K6Lhxd8KvU32c3aXELveA/KhN+aWtVJ4FC9+hqv+tAdJmEpVWYlIcAt
W5HudmkAthb05Q6SPhNE3FzqZVjmf8JIFD1QcoZAW5mrFhHPgjNXMsRKN/u/jZ0O
Xs41KSAdQlFVp6BOqDO/UhFuccWfp7RgkxFvyJxHupkwo+O92oykycTbtywBibMR
F3b/TtitNd0CmcW1BDF+OrDZIEnrCzYD/cATfxdQ0odN4NfCCAkLmmettS+uWMww
a2j+njxeCErVoQHD0qWjMPSI2yxdI2xf8Cb7ocUGOoKECGOuRUHTZgybeisUqmxy
U8JHQ7WUUrYwutTcMODxIdoXIjcGB8bbpODCJjj0+6ZaO2G+S4kCHAQQAQIABgUC
Tq2j7AAKCRDp2ZFyP2B6kdG3D/9167igK031DfHeoLK4R6OMd0IOHEqOaXqlzjcM
8yfw0loF7gcUVx2gnsUcVlOjA1vzm+S+hMrV8YEIeGI8lMQFhvyjtLsh8/qFqlhT
k5yql/URpZMQzASaAQeyHag9Xpnw5eMdu67k/qZuV4OL2XWcjP8pCJIheVW3hMFI
8WZOcp7IvoppmtFs53hKWdGuVnJfh7mSrHX88ByvkClFdTZPyvynO+bY/d4AtJaJ
/LnWo3VuAZWBi5n+91RG2uaV/nZOn7DM3N1phtp4uVArQ7wdpIvV9QA/9YIsKqh5
EKyVHduCMTEs9zpnQ1YOZJy43uzduhYy83TW3pfm2CNBrI2qfwYIuw1CkQrYTE+p
mZrT199eyjUz9Ink4sEAIaPtSUu8eRIMb+YJM3TtNmoindxWbIIetn/wA5YITZoD
E3NJeWx+DFgPUjSVS4zJLQfxTTD3JPthJn8t0az3qWv2co3ga1dr5nqoNxpTDLYk
qjRyOEMg6EKgHM6zsbu/Uhs6jYFwrZLhrKJ24D1rVY3lPrm0RL1t2S/ZnhQnRnO7
rMTwE8UfNPhSdDWUXqZuHmeR6plOFyJj/3gUCTHJsUYIrY4TgSR42FxYRauGt8vD
0bKn7OfL4uPyrQ0Mz0UJoZYb+wHEYPxaIXcIjIhPBtkCxPR9riaS55x7kH3c00Zv
8pLloIkCHAQQAQIABgUCTq4KiwAKCRBBZwbddg/ZAfbuEACes1c4X5TVlGbGSUu2
IZVEBWTW71pfJsvtX5MuK3U941OaL7VKSY+n1wZxmYgVNoDm+/cc+qz6djiqpnFd
PKjZW6g+a0SybEUxwGK5mTZT7wZ6+5D30mFHl+c40aEuP3w4sLAgHpeRWO3sQcib
0llLVi5M4Tssi0VwXkdl87u9bQeFCl2ndc5tBs6skYCy/wccDEjrfmulbguYLvIW
3ROd/yvacFR18kesQAEx2iF99EwCLDVs7YgnhMAY8wnnvgYp5PgFbZ+b7p/n1SXS
qq4VbYi5exphpcl+Nwrnes8/5LTSo+0M4Uv8/p2pH+FHgpj5Rl+LXeLqsxxaigse
aM0J5GVm7czymmMxKJEq+NGOLkXz/0gupn9Qj4WS4LhOVheyl/J6SgdC+UGmI3O0
mPMhtJ+zg4YZZ+xWwhcm659tu0aB2nEQHSSy35JERvUOY4UGNesthSwadw4Ooewu
KktIOT6L3gs70pMxvXYCj1yoaPkUbKzfW3QdeD6uE6w8B2vyFkBKNN0BAcwdxI0L
X/1jpcV3hZa8bxEWsoddNWiKuz+Hbi5wQXZe2Wk3yT13znZVTgAwnSUZmhYV3S5w
8rVgMWPadfiGiwYnMNw0dTmb0ujCF31QRuVlXWihLWSlPo9/EwfrR74L4+5mUXp9
kS/4mnzs63ZYHoUkBmVwu6+GBokCHAQQAQIABgUCTq6cfgAKCRCpwXbMf6x9Vs0B
D/9Vqtb2AxX2QqHz1TsMcd/pxgsxihwuAd8PbNPdqPUe/yOtGVHv1uU0urS1o8OD
22cXzk6FGB8eY0Xc2hl4STnf7JLkFG6qsD4AWoIFVfwDbHls3FZaPyMXlBLJtnS/
6XPSTlnF60Pm5TxjQ/h4Q13PYu0NSmiQeBZpdkeiwWn2oHSqEntkjFKE9oTs/uzf
Iqn92vMcsqC9zl1xGQzQ8dOpcYWUwMUbFB32uY0cLwFPMr1lEqUIbNJgkfgtctWH
sdq0yURjSpC8kIEjX6uxsJOwuiYl+J3FSDZILEV4RvR6H78usmgNtpgcEgslMaRS
NOExftqEQ+46SsI9UrMSgDkfCRtl64mqkhDyk4V4exV0qQo3i3Y9+v5OgDhFT+3x
+RmIQBEJyVkzlyM6taOVEp2zunG6T/+1YG8e8FIyg2MB55Su2sa9QylGKWO2hUrx
mRVRPiMtEkpxsF4cS6nhyuk+ff0s5csefklKE9NpXZ0OOxK88czi/oTd6D+ei/sj
kohUxLKa1Y1ICLqtKJ8qVa+C/SCxnfdkElCWNg26fUv1IrIDG1WiChxpPaEV9fT7
caTwjCqjA1rLYAxThCPbq68upoSvEXE7w0Z+qMQvkj344A1TDIKDXp0D3ZtfRsJq
xM7h0PETxi9xzGPbfyM622rgk5krMp180GT0IOfSeBGogYkCHAQQAQIABgUCTras
CgAKCRB7lugWKoz10eXBD/4tBaiwa2sedUcwZKH8hABoBdIw8NZb/JRZ1BJx+bhS
iIdgQOwgbA38MZTOPYY81IltkTQOn9AJJ/hvxqzxsRCNgWAg2pV3BzdMSGB8fj6U
ziJ4ZASCjrrKIwT5k6PJpiFbwH2rtTRGnrH06g4CWCjjZbLi8Bzd0uTmSBBc2Ups
hj1kQcB+pCUJ2EYU4ABU5QjeEIjqBjn2XbQJKnJxNi1hRur5IVexg+i0W1nDIkvC
mRdGKWt1skOuOf0ypfs0B4UyzBbwMonR7Ci7MeK/u/UYPID3qMfQdZ/utY67Ixzz
l2HF1TyBoLZ5j2CI5Wyd6Y9nxvF0bvIVP+jp2FZ3dj4QOZ29RFUcz1EjuFit1VAk
nWumdyTEkwInG5bUQ7ogfgOXBi5fAHef8vdTIccphVRqbruw+mEI5z77jUIsEHLn
KTKjeilVmZdaGerkVgnEeWJNYIGd4I+N8b9I2Axb2Z9FS6ZHW/Cg/tdhGxdNhNO2
tACH56w0Dd6J9gGuxBegsMvSg4/gRmmRNbYzbD6BPlwaR7oGGy0AV2+KHJ7nWG8r
U4ZGOr26MMWUqnezPUuoV7yCty9VkIEpPp09fiaxs5U7A+ZCjp8yMt5Lk0TxVnlr
W6WjfxPMdrbo6xbSHixhDvKN2MY4UhJRr3L5Lb6Ve6LRZwyQeXbYsu1ENweY/Rgs
W4kCHAQQAQIABgUCTt2LvQAKCRDTb3abwRgE8AWbD/9cKlTt8nI/X3ihIdhcjPCr
WE20FJ6YCd9EIeHEnkbbSwqlI/bh4UbD2NeJgUdJeJzn72FCSVOJBe25CJ0AVAki
HdYNIQ+e3FqIPkhtbnXCHVorjBi7sm8U5tc8ZZhDmpFu6fyCQr4wPwzDtJGA4M9X
A3ulr90m1ad6i3u5pGrI/eSJhvIaLvJNmjwT5C0nI1uchp3jldRz3lbf+SRlN6CY
GUifbZ1ObNdI9Rs2uYSLvI/K18iYwh9tjWAOtnrOeygAR04jrTnkpZGmrzfnMCvl
t/l4gMBVgpL0/MEX7OymRS3z9dQuMHpr/ysgrJE/mhgu071ahrs5iNCFy8yoe3u3
lLAAkybibnaF2lI/M3TcZ02i40KiOjafrhcSqKnxXsnYTmSzIuFlLnxVI4bj/OIn
UtkHFfMqleRh6rnr4E5ps5TrKZPd1C3JI5XiBsaJXGOL0rreorN3RiylCjUOKVFW
I7i31TBbf9UMpXK4I83eNCrUeuZJFA//8/Wl/ezcGClJGcjsEL2dmvRwCRuVYwON
qHeJX2t8AgXT2imbwgTANAr7T2t8M02xEexEkHQzo3EeY56Ukr5i1iwq03uSv3s7
DBb68GWM/Ai/NEZryB2xAnMhtyug2+3XSh0FiLagn76ZvNeJZ51LYuSJw5jz9b4m
cmHIqQrTcnX+S/TpNTzviohGBBARAgAGBQJO3YvQAAoJEO06OeOTZ0xATGEAn2HV
GTbHI1tMmSQ7WGZO/H0f9l77AKD1TGudB686snJpEsZXF89kRPUTl4kCHAQQAQIA
BgUCTupViQAKCRBOOG2cnGFwL94cD/wLfrNLUTDrHd5kTYZueiM197ltOev2iNBb
ZEs4L8Y4PakVRnSqomf/3iEOTvH9DrrdEnA7LtF37i3NPoV+zLtZrVag9yQhtBQo
TsTPQxpIPJGAkGxtbehupw/hKYDlCpB6Z/uQ0crH66BJ3/vkpGtOfVkPCzbUd25t
S1Aq7H6K7WgNaCEGiO1BGvV6JbIRM8o0GqcTngqvy+AlPyYAPoy2LLwPMdX7G/Vl
q9qQbcCgxUm335tr7zDEoE7/H3V3fquADd5DBok9w2ABtGbuNvXkOyzS2ELa3dKf
BTTuUONUHR8xkdir8mLZEb8up1SgysZlLuFhNX+oHolFT9Df5YKyU/jyAAqjDMq9
8MbxNiX/bujNw/eVdLsuCV3dwEi8LpBfTLu7CCvTfYtgv5t8A3+dcfF7SbZbXOEx
ho7QXN+gH2a84j6JY60ueMGKUE/vvElHisVDgpzSirTn4Me7Iqhu8/PvxyBHvjkA
AFXUgVv3WF5llZDE2e05qskVr/QZg6jiIJU+EEy4uC+4JuppOLxpVueFo41wqxw6
HDsY6gMJLHz/RHeH+OGctvrXtU6jCKghw0E7FNernfRHsXHMreIGB/OTIOEqGhMk
IPlmjC8uqgkkm78k7JU2DCpIwYOpj3ZJVu2We22jKSZLCNVgr3MjCtxaLfr03IsI
k8ZDnvAAxokCHAQQAQIABgUCT4+WkAAKCRDeFqsANW79TPOlEACKRclweEpxSVwJ
eyWQwsLC07pVjoRHrOkWbmJtve4myarcqd99iDVXW8mG+S4APyB3gzqFn3mZfsNV
JmSjtVfH7FR7In29KLiNgL5HCcW0tZ0fk/u4cb6kWSnKY19PP8cOudJulU2q6zPW
DAB9E5NXxx6JvWyrJua97H9JZyOukwm7cJj3Ze/DlHHuUeYD29CfJbCr35p4d11D
U6pefIKL5FAzNXljfAykFKYGTBGM56GjgIYLCDKfJaYT8bN4isk5Uu3EBlITQ4P4
kOfsLwbERE1EnDDnHGTgY3kQlh+erz9zTBIrw45SESc0Q8H3EEfM3HNHvJyzTYyP
VK1igunIJS2MUBh2uWanL4tOd/GljfWPS/BdgtsQKIYDMNadpKmWldqv2V+6733F
stLdvrKPM2LMpCQ2W3p/AB1Og7AtH5p/YsTwNNGWWt/0qz47kYutQNgBsIr8yha7
zDFK3nXFOaczmIXMrUiagkF23oFQO+Q2F4ELe77u/HRXStqBCUSVxpomRywqHVtS
494nZIAhZ7gffvatNu2nHefdpQbtYGcHg5FyhSUmYZyjtWmnZJMAPQ/+dAOqxmie
RAoIQliBkUIc6285oXEW3srmxdzQRuWAHjU8gFn79VpaiHv0rxnk8bZJhQl6TmEE
FULA5c2kBWkc8KHXPTyLA+Rkd7frTohGBBARAgAGBQJS6p/LAAoJEDhZwDsuI25H
XXQAoLuhsLMb+R4PShCIelREHKHsDA5YAKCmQfTPWrgvMZ/75D/i6x2hYcodBohG
BBARAgAGBQJUFxSqAAoJEJ2cRtE+qgw9emIAnjuJ0E5MNkWdYjiH0+dUS/qWm5k3
AJ0X91ovwAYE8UYm3uSo4ZG/VFpKyIkCHAQQAQIABgUCVW3P9gAKCRDTlpEampMN
chZhD/9w4MWzRsWLBleIYeBmtFnMOLnj1AD4X/6G7jAB1bwXknNNDisJU3emKXeX
3QiGjn4VqGDomNz3KkLqI2awCevUlEqHaYJIxsD/Ybnedh2qwvJzUrIUCSaJAkso
ZL/KxEpeSvZgKZfMlfJfKrn82WtnTQ3OTaKUi+GCiRaRVRfdbnhZLxHgXV1LmO5I
png8k1Oe91ftWUpnNPJiW5qiphIKq2wedbrRP1Cbcw1IhHBMC4Iozfro4PTqq/Kj
9AtH3nuRUI+OSVf9BRZN2GvvBlTGLiDM90MYV3Q/Z6Yvqktul5f+Gk9hNu6xmybY
5UDf9m59TQLfV7lGBHKgx3h9xHi+Z0omks6JZpWL1Uqx/DkQ9ifTtTVFHzkGxFEX
vxbs64eqiNeejbLgueSwLeCozJLaMHSSSJ80j8Q4DpA3l2kwECSxrX0TtH8xSW+b
YoWlroCXFaBGkC9NkWx9wlh9ONQIWWVEa7guUljp0X3fBeSCTKPnILkSYhic2u7n
Hk60e4HxUQweS7o/njmh4vP6TTE5E2ghci+7U9JXBMZ73UlwOgncCxD5nk7IbqAh
qoGjABBzlxPYo+ZFDR/mu17NTjMrnA57kkGHgQP0ikTZIWJj1pjXU8Tgb09i+km3
ToLgXHLFRs+S+u82ONHq4dVq/B+NdghsqBdclYcj7mXjTP59UrQuSmVhbiBEZWx2
YXJlIChrZXJuZWwub3JnKSA8a2hhbGlAbGludXgtZnIub3JnPokCHwQwAQIACQUC
VBFoDgIdIAAKCRClUmubs81OautvD/4oIf7FPaIPqrsu0FQEslPq/hnD5Zc85Dl7
tHZeVmDggP/DxkGDY9oDMx9pYr2FVrUKZ3VG2dsyF8UPMJ7zRYM959mHS7SXcSJz
p5k4mOnV5739GmyDFmA5/Tnbrx06zBvsbcMlgIMR4qSmdy1Fr88hOAH1gYcesGnr
6hp5pHC2ZI3tS9ToG3kU+cdMeprtjFF9oQlV+bcKl7RehCtM2jneV34huBWAW22O
HvuyH3eNV4JxprHJ0kO7Yvi6P+Y/qURMryl2EQcUaHs0nyeBlj4mLUC6Cdc5rDxY
Hx/IrNVjsHmNj9zYyVSm8u0QGKtRuEEor+F9ehW6WCCDlrIHSRhwwdf7tik2cC6z
bHVuVPK7G2a783jH3Ku7LFmEz9+1KKiRbCJl0bMl/O//2JwfJR4QWeqI2zCRQet4
g/eXOiz6iVJMhF4czrHqY4/iaQNzg0gKzQ6jjMQjL8JIrcQy6H2NioCZPbkelP2W
DVXxAEA5mvC5MZV5F/dIHY5stX9wUpbrBba9GlCsYbQooP/8zBaMZKDkDEUJgJPf
DEBahxrddbe2hvYOrGiwVpEvtaxjTUBdu6Q62lM++OX3aoeNllz1+okrk2NIiDnq
4huwdYPAsEfKiCadTirm9Z6g8W43LQHbWStzmuW1aIiISMNvMCcNVV/OLIuK93uk
r+eprZQ3UYkCOAQTAQIAIgUCTp7GNwIbAwYLCQgHAwIGFQgCCQoLBBYCAwECHgEC
F4AACgkQpVJrm7PNTmpyWRAAmDyYDlSqAqhunlj9aKzg40p3Kb3Pl2nNWU9cL6bp
pFy7J+mqBNvBx8QSWePEDfWMbbBkam4T8Z/qda/owwo7JnjT5D8KrJCaWOFxyOi3
2OvYvEEKVIAFPHvc6vZ++7GldYdN4arcd5d9Z/yk0zXEuHZqHFT7HpWIbY63z1YW
MX+4Vl0geAykb3a14gcG9NFDO4U4sajbltgwaVi4fn+qiO7FjLKJAlOGInM9EPdi
UaMf1Z1WLL/M7qMf+l7d5g+5H9Osm28JmNQ1RR1B9lD3oSzUwMEF7ElwBA8fiFIi
kclytyhxELEFFnouLRmfW/VDfqfCZELp4dmIw8vSD0GoAVFbKVzeE0lY6l1qUO8q
mxjfOD+g/6ZSlYLrfOa7s38b/7cZmPJOxw6xFuMzQwc+XePiOLqryHg32nmON+FE
gwtQ4XT4IKAPeyDmyJrLd8pOJEgXpxL25Yc4iQHq1t/cJjC+s/Convj8/K7EYBsF
DQjp9Al97pW8AyB5NDYD6dZbxS4e9fzAMKMT52FfcJO/b1r8SR6mLuNQ9Ly2YLXt
1HyiLf9t/svCFjWrlcLHabRh1FZmwURyNZ972rESg59GOBbBJuDdzYmEV9eDtOZx
r3BU4yi/oL9pl/Gzr/g9h/YqbCOqc4ZOPT+j5nSJ/PlSNUC4TiRuRnVPTxs/gkY3
AL+IRgQQEQIABgUCTp7GhQAKCRCGVojQOPAvyGN1AJ0fxAJ9sDvVXH3XRxvWM+nJ
G+4IgQCgrT06mwqlV9h+08Ii1LGbrS/jymuJAhwEEAECAAYFAk6m00wACgkQ6uPB
XlkxF/avJg/+NMM3j5gq1CFDI5GUl1HF+w3N9VlA2sI/V+2w/OzXxfqqVCMqo5fF
w2kHFwRn1b78+e5ZyTmmNpn/sEqYtwUosnOMGL3lLQ3n/RQoXTkhdDvekKWsOBvy
b833sQg3gax7qvmIRwREsnSWi/ON5pJBP4oWgnchJlDOIQhHsNb3ToXbIY5QLsWF
CeJyqq10DVYNg4WpnT8Fc+HygAUWOytGjOFZGxlVMiLkGl/ENALoQIKGyQmGkg2L
8pFxeGxZZa+w2P1Tf87XzdJQbWJm1urimaWeeGEctVEJYjIwEvXS2Pk0DedQKAkG
qip/5KI18mS5WiVWTKWvT6BUqSmI3hHBYoUyItdSxa2KP9W/M1qi+otnRpFgnzf2
M/L5TqQoGEhM3QHfd5zMO6+rYFrxFsun/t6w6uy5pnGLPbTi9I4AHd9Iy33XngWR
PlTWxzXl7vi8yYM366EjPRh9X9F9YfhNeJ2YYgAtWKqSclj77BeiwisvT0GAMMjK
UQimtk3nxMM/BxOKS22WzxaHXNKj/2fKnKOYYPyHbiYCVac0VgT065rXQRiMt3lC
Tk72xTUNpRLBIKF0l1vWtWvGTbGkfZMPpkHzjXgUmGbefrg6xbwBFq/Kp5sbWoer
su6cOb9ENnzoOhcgaSyvvwNLYP+kseA2NwtP7HMZrs+9aVxuDx/5/HCJAhwEEAEC
AAYFAk6nGYIACgkQmOXcyBZHtyoEcRAAjH7CWTfMnj4BD0uxeRjCzjB9gP/tP3XJ
tf/8/laHc0AfmQD2KM3lPf5SaAu2Nfri6CQNOxjr8x9VVUju3IamvB2YUo68Ob1I
GOikghhIOCkUJ2iChPb4pAP5Y0CLve5ckO84NSVpn7GHAlJls1lJunguEnlXw5Hu
AGCA5qJiRDk3EjPbfPXc/Ua4DQnBmY3FAak/ZNoO/FP+yCfm2lJ43Alysmgx+dY3
Wa0HlU0c2C+tda7B6TyBcpJmQXz2Lh2eMwPi3hFZmCGnKnR88hxZnNzroWIHlAMj
QnC2hrkrosgK3tN07wY4Y26NyB6WEBzfI6vbaTwVb+Q5Umq5IYRgcuDu0aavN8JN
Xyw4rGK7yb7/vCm9nNAa9Kgl7/3YnNNo6h6N13YIfzm2Oy2My90VEeeCr2dYU0Az
a+tqOJxrYovgDJit3VklnYrmt5mCMnOXQlB+MxA7SeQKnqBlqy/QVtUWtxJWQA0A
imB/EBkoVIn8lP0wDWs7KpvimF3Q8shcoSPj1cEiH4Hee3zNUxSVl5rtFkBWZTFd
jckBI0rgkGMgynb0WTWnki7/XXxqjGZRJnmBynlhZiZo03znrhd7rVJPBc4QnVO3
gMxhaUhEMwS2AaS7luwX/nQQ9Qg8v9WDiD3V9uwd4/7KSMEVEYsBgES6lVv9EzgF
WegkSSvc6l6JAhwEEAECAAYFAk6nGYIACgkQmOXcyBZHtyoEcRAAjH7CWTfMnj4B
D0uxeRjCzjB9gP/tP3XJtf/8/laHc0AfmQD2KM3lPf5SaAu2Nfri6CQNOxjr8x9V
VUju3IamvB2YUo68Ob1IGOikghhIOCkUJ2iChPb4pAP5Y0CLve5ckO84NSVpn7GH
AlJls1lJunguEnlXw5HuAGCA5qJiRDk3EjPbfPXc/Ua4DQnBmY3FAak/ZNoO/FP+
yCfm2lJ43Alysmgx+dY3Wa0HlU0c2C+tda7B6TyBcpJmQXz2Lh2eMwPi3hFZmCGn
KnR88hxZnNzroWIHlAMjQnC2hrkrosgK3tN07wY4Y26NyB6WEBzfI6vbaTwVb+Q5
Umq5IYRgcuDu0aavN8JNXyw4rGK7yb7/vCm9nNAa9Kgl7/3YnNNo6h6N13YIfzm2
Oy2My90VEeeCr2dYU0Aza+tqOJxrYovgDJit3VklnYrmt5mCMnOXQlB+MxA7SeQK
nqBlqy/QVtUWtxJWQA0AimB/EBkoVIn8lP0wDWs7KpvimF3Q8shcoSPj1cEiH4He
e3zNUxSVl5rtFkBWZTFdjckBI0rgkGMgynb0WTWnki7/XXxqjGZRJnmBynlhZiZo
03znrooivYj5Q2klflfTi3O06H8+KGdFato9ub2zA8sFcm/mv9WDiD3V9uwd4/7K
SMEVEYsBgES6lVv9EzgFWegkSSvc6l6JAhwEEAECAAYFAk6nGhoACgkQc0FhntM3
Fgxl+hAApeRhUZ0yRi3GhxLhLKILjVkXLhOH+wqVcgsg5z5u+HI6xgLKxZ5sScx2
mA6JI+W5I93GNLn7lr3lLwNkT8ix/LRGTDiU7T/nnC5DL7iciDzx2wz1jQgdcGUr
OfYptSJjzgh1wyQnopXmTgIWFkxFWG9v73FPW3254yEo2SWMvVUR02LwhM32o+np
bPrfBEf/xZann/FnzwocvtUMXd7Jl+Q5S0cGMdSU1heiI1c82LU2ku+kKq8FCTsd
XrfDsgyqFgAx1N9H6eMRXOpWe6N85shIwBwELRFHsL7ZG0SYYfLaBaGyN/aqYWVG
AOAbNnsP5OmiH5k1bQYHi9BaXsOKpAn8RcIOl7siYnQDlm1aLrH/UA3Ogou+F+YF
VMcVZ2E+cvjvssMOCPclcfq15U6aTJbxRLJeX2etNDkVjRCSv0ZC7DKR0xWNYlBO
J6UqA5rC7rzOs8SKIh1NS12vpA/A1O+S+yqyMCwNo9Z4fp52Iyk4825XZ89gXyDM
ylwljXIMjHeCXt2yJH/EHnROmvrHTm1IzN673uWFxKQUfr+5gEK7KNbeTLnKDEjC
kTdfj5ln9bHW6U8aTjPZ1Z+7p9KgjLnZh60Y1Z2r4SBIxiErXLzqfO2xRXzt98n+
2JMJITQ8GtIfmw3ELT6975QE7BY9MxodqUydH8BaiK3oeSBXSsKJAhwEEAECAAYF
Ak6nICEACgkQ+7dXa6fLC2umbw//UyVGuDZ2E+CfVElteFnTwu2wRy1JDnKhY9Ir
ZK2tU6lzDAPiTeN5DDLSXPLrk7X3naun3wsLbLGgXyNCmX0F89VPKFpjjWWj2ggW
q28dcj6BeelBe8T0rx57NELHOKMuhyz3W7BU+srjzGl1ljekWROx35jUat7b/A4h
ZkzmEanlC6Eb4qj46K45KyAW6FzK8Q/pM8MEAUbHjPr7xKtm0wLqBYIxlbNAic8w
nd62grVvXfFWj1s7ZNd+Llq6gr6fis9oc7cocalQN5fdzqnwzUf7O+6v+WynelKF
aZAFWHDTbMJeFLcbogTjp7khzatDALQ13OcwWiuHCbn/KEGzsyy36ok5s4ixZkoJ
t1JHWeTPcwFP/iPRg69eCCFeRGdQFu7waO+9VmzhJdeCM355CwI5JarHBHAKVIzB
wZERYw79FxYaCu3uNY+tKh3L2M7ZQHUr1QzjrXldgF18Uyb3z1m3N1uJNZCFNktr
0QAMuTJ9YMo3cxwfOqYqlYirwFlZ+q3NPPeap4Hf6IAdSssvZ29KVcBgn4lyxli8
BiC2PxcpiOtTqcUgiFVZBUrnfX76ARuZDYuVbxSv555wV6U/94GJoSAZfDbRYXlQ
4gxKavl4MsDID5xBypLgpWJp+xmFCSxDSt0tsP8rK2xoUn6sec4qHEoyiRDQYEhC
GEtoUDCJAhwEEAECAAYFAk6nI0QACgkQjBrnPN6EHHcYag/+MP4TeV/opvEGaqmR
AHTT/JAIAfgPc+c90AdTmi+563sWyejFnfDkp0DY7jf3jMJABd2yX5N6EtqT+1vR
/7mibYhqjo1bzhKVk2C+CuQ3j8gZU67w0ymN7VDhJnFQ0ZF7uizSMUgfrxGPd0XB
3A4KDS37ew2zmSRIN0Cb9e7Jn6ClYIBkaKU2C/LrN2GbIVV5C17sfywu4RWKZ8HT
YzwszfXtd+497OK/UKMKDHBLz4uPipECppQrl0EA/gBhNMxUNxlL2cmW6zyQ5hp5
vvoawVJuVLe+Td+58uOP/cOlqYikkiqToa+6JGXavjxqJgKh1g4eJTtwgCutFajD
4YYysTrJ0+NT3pB/qC83JRIqPSVT797XAWEP8YZb+GxMgkuIuoo1NpwS27zUz71M
l04MqEVZdGh/sfdB7+aKVodtsjJ5Zpzx936krTuu7CeRvHTqr0JkU9KbVLZz3cBN
+PJz98lp0YkaJj8nGWhQ+uZ/eCmF+Ydl+LDKtbvMD0ojUonaG7xHCplSc4fgexhn
kfh1xFCvQiX0fLVvKlQ+cpiBI1MvJxGWvw+Ugk6kVRWywpnNikiH0kdW2bllpiz7
6u8JmHupl3cwBltcywyqfeSAbsgbddfXa0NjYSJYFuzxlZx6WT7p7CRbycUTM2KS
VG/75tOp7feLyqijN8GNu73qfayJAhwEEAECAAYFAk6nJOkACgkQqE5/uaXy42zT
jA/9EgJNRvDZ5xEzw85DwyvdX1sXic7msZbofv4/JESx5IsaOF6hgDzlTLnrFYQD
/C6GH0HLyU3gFuKNs5jI1XA9YUlRdVIPk7+h45kd1f01qJ0HNzMvw+0RQmZmDtUE
oiVKvp4PCfZKy+Z6PE2FmCTMJSHoVK/zrrRV2wU017rA+Mwww+IR11CN4rSaXCGa
e5lyo3HNysUvcnpwS81etoE1AGTXrSTbQjAkye4DqZh+fF2Wtw8jL1p4FS7aUzqR
4vHfQIZNRJIXw9smhKlnn9qfV/mulIJv53ZAONfuw+/uVKIXrADkPf6XCS0AfY0g
9iBdYwqivwM5+QRMUoPxDbM9SIDTa4FoW5CoCXM9R7d3wmnf/xPbHXnKiS2NW+wp
StGzCDQJqxIdQHCy+ykvMgxxZyFplZvanzSKHbnBmq/6YFN1M3OUXA9kI5m2A5d/
DvQdNnKzjQf9EVAad0vN+1Fv4McydVEji7V82yY+pemSCNuBRnMP0q5KEPuxZfL0
0s00LFH6fWcSQw6rRGDfMu1q5vkIV/JGTfQBCHU0QmxrORgDeEXemLpXVvdorjoz
gHtXnwz7CPlx4QfBi9UI82UHts1712mOjgdYMQrhHNWQAE8MOvCCNcOfe1jpg/nG
AxoEaxRHgmq4DQ8GRzbhGrqpqPiK31pO6eneOUFCBviklAmIRgQQEQIABgUCTqcx
YQAKCRD8TeTJZT12J700AJwJjXFnYfET78b0etSl2xdfEOEDnQCcDqVpYp8zDj1+
gWdbbs84re1SHkaJAhwEEAECAAYFAk6nMWUACgkQLqdrnCtGbZ03oQ/6AgqrySzP
+ttj9EG1E3MEh/JVhPU/8+fcCErlLCcxIB3wexvVBbK9H8lij/brsBR13SdMPGfF
ceBpoDD6u/OK88qj9+Y03ZJH2LYfnZrJ1BQ5riJpHdL2bkWaSOeGj6fzlnB0jAiG
TsWk4y+SA8I655kEDh3v9iyWtSI+OksfnJtSBmggiQ7qkQ8m7kTsji687p2xkcCk
DjmleKstoPxD042FOgHhwBHSJKZqZZZIebXmR3DhQ65ZURXxtKj4WtMtDYXBSmU3
UsxYnxx33z1eewWjYC9eqZBSDQsrc5ABpkOYMpZlx/QYiulYKIrcrJJqEu5XT6ui
n79zO1TMpNwzx89Ii+l52zNLSBi3/GgEM0RbgjfVC8ODtxVdy9q74SGKiwmfEt7k
P3YTU/99ePzCeRmrYJrMUGpFsDdUMENwbVjadrUGeD+rV900duZ77JTvg3tdsFEs
KXEcB9JcESQVT+2+xK2Mrdo3E+2tZ5lQB+y2uu9J6LzB/G950TNMOB0aDPfjPVgc
3BeK0iWKo/MT0IPbshkLWBzczA4KTGtq4k3t0eBhL//my4ihkl2+Jjq/zcQY6w/E
32JRzGYFmFxTaV3FCptRDr0guUDa99FXNqQMoPW6mHiFmTkvv1GIeSm3jsHsqcrj
LWvsqx36uFrsheNgPXdXn9OQ4mkNABEyXkOJAhwEEAECAAYFAk6nQn8ACgkQY7Tw
GX88Quc3rBAAmi4VZ5+weM3E1Rpr2quGMq0ojESk44YnFFfzBaCuUBGbdC0ezhm8
akankqftI8b+VfOfSpwAU9vIqC7yWPBxYCA7rmS+ZyZpdMo47VW8vv/bFXI5KtSK
10z08yJN12Fk8HRRvJ63EueNBpLyFHbPiBPC8M3C21+DX2XPwHaz6HsdX2w5e+tM
g7UZyPH0ZQNCGjga6o73nVY0D9L6XbaLeAFSYgGQb1qJtCksZdhsZZoz9IeENlzv
UNuu+lTzvw8klI6dJLH9IIvePN0iNQOoytaFLW1qB8oDqUglFX0BPKTKyHGPe8qB
aOg72gMk/gLh0D18RTvxKNok17WHyLo6JvTARgp2/qU7wmW/sguiCtg6X+17FPRX
6xtTCUUMW4D4k07QLuAz/N38LmEnhU63jPSkX4g9VCTgFNPd01BAMNPDkV3wOuWX
/LgKKAMwzKAmYfJwE8nkRyLxbQwI+oJEZw6quPzo3MjAeSD/PafJNqzOf87tJh1h
G6P4xVP9uGaha5s69oEiGCLM+9ECLdhnMmYDF0r3j8JIUUQH3rpWjRW37YdPsNb7
g8ccEn/PXFA043EgLi+Ru8qcpDVWaGd852xn/ZTDcY5NbRE9/jao7nZAhNBFhAc7
eT3HSZNKTYruyLFeRxCfyX0TsDb0QmmavsLSYMOh0MdDJuvv/MTfXqmIRgQQEQIA
BgUCTqeiBgAKCRAxR9QN2y37KcgGAJwMfpBh6RJKs4joSQss4aM8dwOkrgCgopNO
YoCM+UZ5MRI2/rbRaJNGXEyJAhwEEAECAAYFAk6nogwACgkQONu9yGCSaT6AlA/+
MlxK/JyZB/V84w18x8Eb0Ez4Fr7ANFB+XFmx//ANA2kEDeXUlDQzt2LvpyUyCc1H
LQn2ZcxYQ/22qPhgNGZlVC/FUug3X+4Iz8u9LrZofUS0vWeTfZ6p3wF9yIzJoo4m
LqQWP8Ghr1DbR4zsk3Pi73hvV6/dVh5SsdO9/dXL7hklyeCT5f49k5iicOyPAxSC
UFX5Zp5iWaO6CU1bfglm03YEj58omjy3QzBQlbNWQtbNuFcD+5G5EMI0dc9vp87L
aAPy7ODqrBhGc/zkuSN4m9xeRI1GgT9WiGLLl9FlGMVj09pwi1e5qfudiIk1o/n+
m8NAuxOPH35ootL9L+R4DeFQwbdwTAOz2HmBXYXczazwe90NjZ04+HAZ7NQy4Cdu
KXkRM351x2IVJ7XPP5zyzl1Ep9ZBuwQ5zSlvkkGy+cnI+tbeRUm1ebiRDieAj0ZS
wvzVqIkPSouCoGI8STjQ+7M4sJqwrT5X52BfVibsO0ijLP7XEghl1pjy7i/iiOWz
ajiFnZ7yXi/fig3zBCPGLwQBS6eiq4J96QJguNUIjnAdYadI8/iLs56782NgT6h4
buGnewtx5kcLJ4tuK1SZvHRgjA9y7xlu3tFoGsPsO0KuvOglhliFKrqLVD25IANH
J96lFJGKCoobkqQczy7Om0VOOCVlNepijxh7+uW1TaiJAhwEEwECAAYFAk6n4EQA
CgkQvSWxBAa0cEkO6Q/9F63T1H+R2I/JHzUJqWqYfWiyRZ0WR6mualUI2uiDm9cl
+4B/KtJfmLii/BzEzQPaHkU8UOjHad9qVXD1jiYXdxP9Tcp1aMl0uasRedMRVe3G
6JASv8xpTgq/U+k3+ecwIObXJYbJPsW38fAWNv1XTGnkeHM9loE0Lzw29piy/zOL
5HkEOw2ZPmdDHRW3DIQLOiC1ybauW71UdVvpRBMQyCXtIqNkk7iXIdIvHNNccMwu
m3qWv+AzmJeGG/K/pufAjySLebDpjsSqDujzySh+EAdQ3GKxfbf/FOgpAOm0fDQf
XUqGN3oe7SGdUCDz83JB8/u0YMeiNQzlK19nxw7s9KHIDqBYQYkPzUnhrO5Axh47
6m86P+PbORxguMru+UapI/CF29VLqL8DZFV8wahMKvilCYzGm6GIAU2d9iPdelel
k/FFS4EWJq9RXtPwmEZcY7clqr0nsYSJ9mJreEUDsBTn0MR9Ml6Ltj9dtpUdjeth
OJ1fDCy4E2vk4kXm//TeBXqwHPGnxZWtgGwZBRxwSrp8zki862GV5K/0osVeWSTk
bTP3cu0dDkXVQ24cOSDd9ULfkR+E7G/jNymuLb1JvRZgYiqYo+/xW81U61uuIrrX
hnvDh1ui9J9Gc6tgW2731KJWEhTfqOlfoc9bxmBeUdX0tLDJ1JMAka3KBG0jkkmJ
AhwEEAECAAYFAk6oC5YACgkQHOUKkwgYupxmXw/+OsNk8JA78Vh9RTOAr0svnMQr
lWu4YtHUuPOqgOLTz86+HToqbPUqELWqqSeZdpuWIf8GImAkE/ChtK8EgiuEC3QS
dFVZbdWFge7Oln4ezGSGdE697gE3B6u8DPm6WeUy0e1Pds4kG48C8m9No0kOQ+6y
zlvuCdpWAAnnngcjqWsgrwCofMlBu+tlMuScooxdBCYNCKPEQylWJlQbyjl9JV9b
6wObxR7GFbSvoMVRyngHcWwUGMrTI7O6eilmsMd8D6WBJUSIwKoBh0LhqWSZBlX6
qTAqio1IajatlAqElki9+FM+GXTkRZbq1RZ/7POuPbe6lQz/Oou+JKGbdsGsSRiy
luo6UA/w0fd0DAMA+Z9VUdbFjs9x8/VbgR6nabtUVDhHpLid+l6MDz0BFOiBAWTl
IpIIUiwQ20n8i0vJtLbvrAFpBuq9xD8Qszc0P5kCmUHqvdSq7w9ojP+/1WOy37RO
GKqGKEoG1DWE/87slLCGrF4drrUkqJu6a56FrXJxeMnCgGbtFbvDwRbbl/UgbWHf
Vo8T1j7IABTtSqolQdVp3+z/V+5Y6+0bV1r0rNU/2RtrXqa1KJOsWvTGFO2xb07D
aMeDo9s+s1yxnyZlKmlxri3u5okJgI/pdcgIyRi3jSh26VSSOEHFJx3PlLEs368U
3teNvTwENXHfGhMODcSJARwEEAECAAYFAk6oETQACgkQqlA7ya4PR6f91wgAytIs
NSP6qiOBVANAA7u5a7juaMPnvmU4vnwKneRXYta8/T9u/97SYNrEYYyxPtObxcA3
VvF2z1nSDMfmXWYNs6SGhTglMgqvlpzKx7UyjqoRRmiZv4XNwWXGK0z5HEhGy15P
FOcd98fzLviBLYh8dIiZvROj/LRvSZFg+9Z9D1Sbvt3LW8gzDtFE9jy+OkmmRHIK
WaNfC16jm+y2n+vEmQalCdqYqUdmnbcltEdHB8vqA3isMxQrTCN1iMieMsD7mKgd
dl9Ec/Ck2nbuKZ3Ai5GJ0jpcPj2ZlqVwnUmjnHaytBgdoj0bf85IpnW79MbuEaxy
50gUY9QsMh+dvAC/k4kCHAQQAQIABgUCTqgRkQAKCRAVvIM0QwONjF3JD/4sK29V
T9ovE9JWABqwtv8sX5Q/NVj2A+arYYWyZws4XTmtZiNVDZ9KKm27cGAOQC6uDaMS
HdSA9ncY/51YVHeOL7Zm7I1DIj4/ziIHt4cX4grzvtg4J37PtNfVASmUc3ccxrtQ
PuIIz/CLMdnkpqZ8MizfQeZXoxxIh2snfdA39g8ITOw0qQT8cSuLTHjYKUs+aKQO
3vHG47NjWV7BR5xWaUCfVpO1SLX9zpHVbFqcUkV81AVdO4ofCtmvIsfLInluaThB
//H+W8XsKjJXXKcaLU8CvTGkxuN9G4moDttPTkiJCbpiV3VOCNeeseHOJDgG2YW7
h/uT3HTdLDG216DcVdfFr56a5nvqV/tVnqkka+OnbNr+VA+UO8/ZxstJE2UxDMco
k6KXUa01sMRUMGevLwLjCwG0PEYVPhD1NzMoUIalUHwrjgz+dKcLvyVy1BZPrCEZ
AfYPO7cNKnEGyXOPplFwlqZWIbyUW421k+gDJLC7k01rcgcIxjHNBKRqTOSqzi/1
BJDPpVG0iVg8x2x75SvzJ9ctO7jbUpd1US654oMo6aRgvoKQje+ZLj2q5DWCq7IG
BL/PWbCiddZ1JNFIAWFCpc1Uztxd3t5ycpc3MuohxHbaxey6YqiyXimZmP0Oa2eL
Q5cCJ4ox6FKhgDOW7q/CHQBakQC9aeP/mcNpdYkBIAQQAQIACgUCTqkPgAMFAXgA
CgkQgUrkfCFIVNalVwf/bhyR15hpO68ieatQwycAfClgEBY/edaoswSu5BXh3xPD
c9MT9R3mOchuroR/K9c9s3CQXZxhsm79EQkbQu/RcRLoS5IbparwiRhgyULVVEpJ
NGDhghr2c9Nr6Iy6bNaXHnD3y/Tae0Ak6rmXFNdF0mn2MQZai2/wI+8wfhLRqtRZ
JsV/n2uvEX/FNZo3fGsTqkxrfV33olV56qrn8Xz1fEJKlj3NWFtTgWPclQUrV63k
2O1u6V5LsYBwKY5/d7gzog02KRhf11U3tzmTd88gBEl++ddQw0KIFovA8KC90HGP
t1B+/0RK0ygg89XRRQToFu+9rBJbQNtLJWU/P30i3YkCHAQQAQIABgUCTqkqhAAK
CRBsuookORlo/oi5D/9cmH4glNIjI9T4IBR5WiA//n6b0WXeb9zK9969pn+884pP
wH+CFYJ+aYDSwFdmXQyqDIk4r4cYQRaOB4bKQbZ0TR4yE4HDmo6a7KMOGEe9INqW
ubBqNBV45LZOvP/MbmJXW67P2YklwBVbtx6i1NBUYL66FzekpisPEu+UNxpkRyq/
CIfMujPFykz/faM8cCMIcj7kWib/MS62yZfTr1JbkjhujV4R4+haV3brcl/ZHypE
IKm5W9L4G7Wkz0xpLuya/fyqoEgYMex0ToFirzIOfh2iGYQe7qAl7nWiBapb2AZ3
RNFaDAB4ekzRgUvQpR6/IukAmtej3QthAPrHE8qkUFwlg5/xPbET1pjhn7hXVX8X
sL/WgL23jElifMr3eoSePchaOjUUOmHsVRBSU3PhWjpRNN6Xt3oa9/9TtInHBag7
HNOkHp6aAx3njLK1KCAvPl1fDKXHZ/RTazR3ENa6D24C4CmnFW92TjCAJ2EBY6je
vc3FOOO5Mwba0yz/Gg/SGp2f7j6BkGMdWViBGOdXNnPuLEmXJNQGKdp7b+TEub+V
/Mc6VsLePvp1lF/zqNikoybAjePXrvPTgwSxhjxZKiILx7Q+HEGtPUMqPWmvefnM
gb3AX6MfxuGavH/Xt4OCJ5jmefWgTO8BSwGNpKO85U+LL1k/tX06S0fp6wRhX4kC
HAQQAQIABgUCTql/LgAKCRBsMYBUPSkppAhnD/9LJVXvl7wydLv8LJV1lRLw4Moj
b0Hn9C8d3Hy9m9oP/gccqODAo+GQmPN7gLUS7HwxyQxLtl8a2KCw3QOrgoA359Y/
iKjKhJDM2y9fEMehAskIlT48sio2aqhctoSstgsp100et/dB7iaPWqWdc5jS3EDp
wiS6G6T65iSrpv8HjMNUKoXASC8u5cfmZlmzpWRzb5KtmS29XPkPbZ8PEI74TWR2
nIxi2Kjtte2veoQdJ5H+5NInVV9Abs9vOoJ7tKqpB8dOQJlPgarvUCqcIhSSOIPG
TpFwSchGOpFNzmU9F0/1ZID/HdWUXIxi4ed2mGO+eqPSnxURNUKpw2CTiAbHdEv7
VBwqTWxrXuP3es3I+UB11LDSBBFuuYWdmW/fQ46+HZyiyIJoMJUwLRIQX4D6XoUi
1STUIHfr5fo7Syhqgm/17EoG/ph84nP6HEOjtqXcAzaRszzS+0dFn/m/SGPQQMeQ
Eu3hLjYOh3Or/IpjR8ebOj1e+TSFLt+LkIIkfn2nc3FBy1B4w7+HuIDfZGtpTVKa
kftlcOh9UTvL88gIKcDfeiA0IU4LLL7VZLlxjNYmOZHuhoXQOg8owXPGguXiB/AI
i9l9cn9ztG6IUVXj9bBuS6MCfpnN3+kh9dy5ulPE9FQFQRVMG6nvczKfonTyFboN
yAOhVsFxumZlSDDvJYkCHAQQAQIABgUCTqqDzgAKCRAH0EU6Frc2FxC0D/0Sh2d/
Tpgv46OnXmcxp1OCS5RqYjF2SBjoTDXU8ELN8DIrHg22C5yYVqulI3RXUTP5Oh5e
3cY39llflKe9G0HqLfxo8FLbPbAtv2t8qEm4k2KuTmzc9A72xgmGsUF//ibcK6UP
882KSfcQzylBeEvs2gA+3jNsjZkC+zshqqfvPs2/aVgfN76JXm10qEOZqQLl77bh
SiS7gpYvHgGbk42jFpc3ajWpKZYhQrmOSDE7Gagu6dQd134C63650nrGjpOzzNoz
PrMGe26SadG/HZEh40BrzN66L1YtQU5LRd8awyxkLhukbe/3hr8ZWOvHGH2WzY37
XhHcqsTpR+bzZSObha2a1A0p/RuO+Piyse44cykyEDhsCImAtDojQVUpyVzSH1Jh
V6QnMVlxYblnVfZ5D30tvBmOIFEYa3eUte+lgHMDVknyRaexlK/6gs0II4cAJdXr
aXfTUzTwDWE0MGeZsKuT/B3BQKIKzV/6qS5kB5xkDZIKUxnmLjWgtEC/gdQHFcOs
vQsFBELkhlSmm+EyoBINA6sV1+POnHuOTBZLi73zTmZvfw0dTSWmYPnDHG9yYS/a
4n3WTDJb4Y7plfaAbvC4pbRkyL98Gh2kGNoo+FAVqVmwZQSc0dVzB868YgFG9VMC
QPXGxod4ktD2t5ICSLBEeQs3UyCUfntT4uOIe4kCHAQQAQIABgUCTq2j7AAKCRDp
2ZFyP2B6kfnoD/sFBANyYZMIfUH6OKZAmovu0yWabmOrv2bKCg3m9twABm/qIc01
UAVzGvdYBMmiqm/Lhz/qPM9CINtG6ql5HIEaPjAEg1hPLlQT4vIMge2C1x0+Fv9V
2pyyXxQMMgol/IPRCxY7/d41vcI3lxTkeUNY5o7xglf58wmZ7P0CzwxqrDAg3SWT
v+/PQJGQoFg2Vy0Hjd3b3jqCBm+lVAFHx4J1euqgwHqenHs609kUJJb3i+S8v0tO
fpNVrRkYt+mWB60TBENtIc9twIq1KwXzzarV39leXASWYArEc7HF1LNA5pzFDLoG
EsgMrO2tSZGqAnewF1zX6k03SFe9wlXWqlMiIywIeGFujtZhGX/sTH3uEH/LnCKg
RzhqPnJ/gR0I+b+xtyMzM2PaG9XZJkAkX31WTybaQddUg6HMMQvKoazAP+o0pOVX
iV2LqX1WHwPFkgQhqKbRsLj0383KqGPWvmJV3/tNLatT4bgbeHzydKXYF1iJKYq1
qeq1YRorjUh/irLig8u0RaV/ruXyAPxjphpWv10311ZCgcuJUSxqvNnYe3ZyIJsX
fqhpGDtgclZlij7iE4sUoQwe4uONd+SHlTCSSr1JwZoGr3Kn6q84WwK/6AxR4ijH
AtUImUl0BJ925AMAO2bcVCNVsvTb2dBW6/27aqmEbwYZR2ra5GBP8qYe14kCHAQQ
AQIABgUCTq4KiwAKCRBBZwbddg/ZActFD/9kDPwMicAJ2N9HfY/VYcRhUcyQRtAj
sUYCvjrS+sBWdZ5lHZ2IP6sWK0mpyM3P2GX1WbBE+dG99TjEdmc8TvsaSE3Wlvta
U9Rqu4jQHoJAVcgV70rWIXxsS4fXsUoGRtc3V8PPyd/VmxPs/I2otorMdnrhuLEy
U64awATcZzLet/v74rxKtwd9zKgshZ3JnusfRmXgRQCKbyiFEOQvxhY4DTPof8Fr
gG0K1fQjbKeD7zpvPIDRnxNJvnyI8pS+XOqRJWzXGETyggzUirBFoh2SQ4IsHGLv
KFPZAzH5C2vex48Ha+OCfBwg1m86VlzYgOlAjnhQO33UI4dYJVjIhQVGbOvz2SJB
0N0Of3PHQNoqWMa63C1xpYnn77qU/c0yumk8LLbMkZdPSG1m5OVOI0+SIDqh/uP+
ApklvdUTw66d77BsN+9sddIrBFkv1bUYGt0dmP5j/j7Gq1FjwkrQNv/STtYsE4Ml
+aN7EbKvX9++/jSHD3p6qObXXe70AUUod+r6Ut4hwgKG1lqxtoJURsKxxvQL4PlF
7W5HEVhlL65I+EhTQl5obloWE4s3V3ElCvSFTRYOcwk4sInS6dfPX17Yxgpny8eR
RfA6Y16/l5365J9tchvjWFTl+Wj607eXtjVLhYSbxqPam5gnxV3ypuGywlLN09mi
Ofbzz6gPl4B/QYkCHAQQAQIABgUCTq6cfgAKCRCpwXbMf6x9Vl06D/9oBhiY3idB
MieuEZdJUYpOb1NlhHto+WTz43+PGQqyhIi0h+cVBF1HB4xD4RoIIeskOUAVJ0Sz
dd3Sg7FoCQrUW2i+eAoldybN7lsTlog6MMdFmuyJmDp8XvcL0gDm58vstcG97rGh
kG4LNo/AE3xYEhr9n5wPvmIYqe4cbC6P0zKeXigUA43/xG7nAToJ9l4kNpNaalQk
LGxOflN+k3Dx0xWwISnPJituNE4yQvvRAc1xrJE8awmEjDQ/Qb4x5polFt/tGnr5
e6nQkCH+L4ElZARUK+/X3F0QSNDK9fA5/REs9G9izo+Y1h9naFrB0crXbBUiSdjq
r6RpO52Klf2H5jg4Z58XbtHskrL6OIa4ZNJUCMt5FPMzAgpzD5c/JeD8cDouVlHq
oVU7UPdqfjqFP2wJuhKOfyBPok/hngCdCvFC5rF8Ps9dh+cbxKVUAeGI0wfBpiVS
R++5JToWr+0LP+q6GoYtdAQCFNAFOANhWNH9xzIX+5i11tAv63fpPKMHTWHlHEAn
rg9EuRpNQT4ZnC2uUU+TM8ch8ylV5ccKRvMxwKfnD78mbW4a6X+6HGVX57Zsa21x
Wm1oG2fLXkfZyeMTg65mgzsg9aRivLFpLfTC3Lsqw2WGkUbIiy1eiqJ5iroD+wyp
gWRiz6uTAclfvP0HChI3YJ28FvpHMJwUnYkCHAQQAQIABgUCTq8onAAKCRCNzjVW
MCLletYND/9jMOHWOKU/jCcqeSuaLONk2QTnVXuNKbIUMO2Znk9OxHdiFs9p+w8i
xMAGWB/42Zit3BTf/XqzCZd5870iIPxWitd8DEFMBQ9pW/LLE39U38SFXPVdOWA7
S2yJDfmtmr39BURxtP24SInXPBri5NS1Uezq/Uf9cECckHqAWoiBmR5SAocTfvlv
BOjl7gG48qY/BQPWoovch/leo7OYahjE5tayQF9H1AWt0fWX3MXEUxrmnI1bnvf8
Gj9nNgq4OD7t9SrjZ+5xCmtfLRRnCBMARwe8Ht/gJLNTPBgSPhLIxqKydYEdLCRu
YgTc9hAvSxYymwsnnhdlH7sM6U6v63IEo5SS5OoylqmaW7ZsMu8QhHN6XfHUFoj1
9I9W5VdBQpmS3a0J99iIQ/8sIxBaCb8U9OmphsC4cXH4xiiomDbuTktwkAEJwyBb
yrvxVXgLho36VSxZl7/RR4B/8aN82svTaoEUCXyjm4qfqmZOKYwRINczRgyBeqjC
upRlvBEDcnIsyiaBoD5ZFwT19IAEsJ+cVYx368KwpkCpeUUz02G04ZpcQsEfTOYu
lV0qEkZjfT0CKoG2u3fNhTVEtvId1J7UFH6ore1I4+LRe3Jli1OFV4F0AD3/bre6
5Eg/rK62rC28aJxBzZ/9LW0RP4bc+iSukCRBNdYmGuuOQCXH1I3PGokCHAQQAQIA
BgUCTrasCgAKCRB7lugWKoz10ZiHD/4khMeeS4HgtaLtv6HVnZ2KZvfGL5FenRJI
S0SAQNubQAdwS3fVfh+ijoNhjSMik/nEFQJkBFJrh2p7xVCBJi/vqD3BGZLj+Z0j
TJWRz8gODghBbHmPVa+wcOwfczDzJgbnjjd2ljxjmawzCUt2gA0GQUq0clHlLTCN
+jZxkK4AwPv5QxEOdExsPbv7wqCOWDE7Qkeaa6ikm2xLuV/y/TPJ58AX6IbAenJx
RM+zG+mwdEJNdfziYMBA5YrGzr45VQx9KhnUPbMVFRSWvbLNMoT0dhjdvHHt7DFb
ScbsmXzNT/npriXb/Q1tXR/BwDwD431lpLONo4s3l9Q4TYxUrJmgw2CsCmzsUgAN
rrYhh3isN8T63QO46JhRq9fiKAINvvg48Pp/KclKmSEizL3RS3GNeKBirLrCU7ut
Tc+WR81Rn2W2KRrSPMVe0rVIDq/j/63W1klqkHyARbY72nc6Bq49yJCAlNcld1NM
aivRSwb/fCbsZ7ns2WVDf3sG6ND4Hz6jIlg4vOhcpomUGTjMZV0qcLdK2U3dEgm0
k9Oae094iXIZzOS8DFMDd8smLDBjgEnXEFBcJvideGzSFxzpiGy0JYcYzOr5ADPS
dWrQveTz9ulJr6Ssg/8aZ7OYngNFf7DZrUqNUZyF8OdUdlu18JyUL0Fm721XeYGo
w/q9OoJYS4kCHAQQAQIABgUCTt2LvQAKCRDTb3abwRgE8EWgD/9nHgChJZhwo6cr
Q//fyIKjD4NH8TBpJuAYZ0JoxSga3SiIGYOPhu9WyMS+rQw9bZgwz6RNwAFa147x
3jydMqxKHcRKbSInxFUZDmf6RuKtH2Zz+amTeYEcSe2rmigzTkylPl3s+/ITzcEE
dvhNy9S+pOfcq9PT9A0RAkpWIUFVKoaRmqbrm5oi2qBsDyPD9hV+R3mkq/nXip77
eU8JwGCqbcuQcKNdlNTG4OipkJMAdJcBcRwt6F5gW2DWRSO+RqknCGaFJACvFO+y
q2FWddnn8Q0mR5qnRFwSew7K2ViCjkkgGwm1mgz9gVzdZviVIVCAYvFC8f/4uujR
TheNQtdjWps1/26EbCf9C7IfsVQVlMuR3E8rQSGZLlm0zC2DIib6iEQnYvIpg8kW
ovZ2FnRdtC9G+wVgdhILeOoGsYCXK+E3H5ZEfStnz20LU1hqmm4OPQggExSwHqYk
MpyYYdbPmcRluw42VXnvd2uHQN0gwLQY8DM9+KYKgg2ZGvbhgGlsa2OPlH0SeZKA
4gDRe8r+rzgG/P+cUIn1d8bRmjeuegagDlsDZrdFljZECgDr6f1Gd8CIPM44nN3i
3aWwukjWpOx27zjIJftMd++47viB6s4mx75iShvGq1bbuzBPKwyxtLHXQsxZwtoL
CgCei0B7wcxlSvk3fYAeXpbEmfWu6IhGBBARAgAGBQJO3YvQAAoJEO06OeOTZ0xA
l28AoJkjBy5TJ2Ztn8wT2L38WKXtPzrQAKDLMDNFVYD9CKPBynRFGYkZvBONsYkC
HAQQAQIABgUCTupViQAKCRBOOG2cnGFwL94wD/9NMWS4sF+PbWx2x6MUE5vCNQGs
iV5BSgqpboKBsHti9/O0UKth4LcJKfdFwVAHbyDcWGI/1w0VYz6Cq2g0GXKEbGiy
BEJHOt41dukLCA9lNanUOMfs5dQM0ZKMl6DgoybMqb0bCq6wyjZf/gxY+LP6PacJ
XiLb82p9cMZ044hVqLQro49/OgjEseKuTRYAfytogfgexcHmfUc+cw2ErYOj3xka
4H8iNnDFy/CMBIiR0+7HYDUzwJO6boVlYVVJIJgDNLoMRuUKYPEHJy29D57pFJE2
YEAmPQJnI7iviSee58RNR8TkAcjSd8cfciHac9gAs5DYATzYY3rLHu8/9kwlvxhp
GpeW3GxEna0QDX1r0DARq5ek7TOou4cCV6LhJa34eih74g8x8HIiu1dwLLoV5Ojw
KYbgRwnecZK/t4dPsKdWMrJgMwfwrEavY2tdMUZMCN5LogoPtRHcznNqDe3zWMIF
c487nqqGKL3f6LRA6q/IXU8h/K9a85ksbJnSVC4fryRehmZhJE+6vcZ2AZepkoyG
3QK2VfeX9p5WNU7750FtS/69QqD/VImdPqv5G/JFZ3/qahHpAR9+I6vwGR8KujGx
dH9+NHF1pB7lWxEFCT9M8AAaT0jKZ8/NVLgRVZElyxUfSTCzDuPb//VJ+e5cmEj9
y6Zd2s/Zu2Kt2lhpH4kCHAQQAQIABgUCT4+WkAAKCRDeFqsANW79TAycEACKrE5v
Id2Ku+fiehkNZZtOYW5qSHig0aWmtSNmbcSMKV587nmylOA9YTnUR3xwBnd84Cd6
HUZ2ZXbv5pnUOOw2oACYCACDjubflUCDAurXmLe462oPgXzu82rc92hgU+V0MB3f
MtHtSGpAdjuE03LBJWN5ikkI4AyvjO6V8QGMV0HtuM58P2CAki/jiI1131dko9eu
cYEKZ0RONUocgISQB4FJhmraI/l/3JOba1na/eny4425BbNy/LuHn4ZyNOGZrzIY
rLsAK+2mmyzb1bAsDBsu4sYiN/BLjxq5OEzz/rD578oGZVUEthyzLvjWmOXgsaY1
7O4azwuswHZTyO5fhM0l0lokBakvCu6SMIAo1hh8lddaf8jzDuMpNgwSn6JnszRF
4xpaZ5RaA5XeHthUpMJVv/QXpKpaKXwM4g2FXZtku3NH2RGDCZ8NiraU0VunZUpq
8h/rGfJHu5edUf61wg6CpOJMcG3Z6MRuUHsOa1oBa+MWmO+dtdEuZbtZE+4TNDa3
pSIQs4TeHFw2LJQswP4Lk55a8TkafdZxQsEIbvBgcYK8iI/Le2l0fLQVYtRd37UW
NO5lnD6XQxR8bsieU2rK/nO5jbRyKNucassp2tsohch3qeaHMS9WYQYa5A71loKH
B3fZ6FERMXhpEx/LWxcP3BdSVJhG88FEGyTGI4hGBBARAgAGBQJS6p/LAAoJEDhZ
wDsuI25HilQAniDRm+jzqp8dAfl34rGWYNsypWXVAKCpf50OPn4CRWOdw55MixAp
zL+4s7kCDQROnsBAARAAySFkNTLqTx3il85GOoiSdN+r93ohtRzgTeENMoObzuKe
aNXFnsWN7Gld20k5ihZYpP/SJ/0gVSmoVhvy/LaLLeBdzsd95yolv49M8A+8uiNe
zyEamQsGGQQm4OpFd9CRCxNIqPaFRyNfDALmT3t2eSrrKOnJ9bfnNM9Jyineiiuo
rC6QaDoVsHLpTcaayqZu1DNBbdRspJHTmqOhz3UgthP/hEvjoFiPur2EiRthyxqw
WcfvB94vOse3dNT4IgOT8//5MYxE9T11JKQ+oPrJN1ukgEN8kw+oRp4YgYedUgRl
mFyYudAghg3fMzESTjR8gIxwdMsHoceALYMrClBLH9Nm9GgRuU+ZBJpDqSlz+dZz
zswoZOxjp8NGRqnAHxN/WHxqjr5UbVJf/e0A/wwWHjEeZhqY70vJney6WFZtq7eM
y8Hye7ttHzsRbMa70L7dhx61GjJdNVI9TBplWWjIQxcBZujuPDWRSEA0GwhnZnRb
tu5o74425DoZ9bCig4YxlIzbMdjzKtJTqh+lpd+Zc4VCVEgUJmFej0HugZ/jak3M
VmOFvolAzeYDE3BJWtC0Dsu0YIq48E9drA1QQmhmQoi7KGpEjqIhmDNr197Usoam
8A9hbkAXeoyny3j0SIaBnjGkfDPug1FNplFDCyALdV0BvdWIkL9NB7my9a8P5s8A
EQEAAYkCHwQYAQIACQUCTp7AQAIbDAAKCRClUmubs81OatTeD/4lfCMuxbwfRZjZ
k7JltgnHviNIQ4KL4C5ml3W/p/anWiLP15z1D9NB1Xi1M8GDKh+XA6f8dkL7oLTd
nKPSELLFWJ6Rcc/nhm0Lz7NK43+OHLc/cj6moN53MZmJXvZoz4xevWu/4owoXoc6
XP40UyYc/mbBgajdOCDtLxfEvDPjxJuCUJzaFfnrP2i95kbV7m0C953TkWUDL7tk
54Fh8M3571N3DZXRIsYzQ6fasMOlOz/bwzBfphtMA+5A3qpknMKra7xO/kexYzdd
7sacPeCmoYIIBFOoIgngP2X5B7+fxVBBujd5MVN/RRtOLpnQMhP3oG8UzpUf6N9C
XvntT33/vGbLDa6CcIosDTqi5oYg9Z0aYFAqjMcSjwiwaryK2qCNwfbdwlZ+xwqW
pk5C2pvvlxQwaZ+WiFreudKkNzefg+UoY0bk1oI33J+OSXlAn6bh7z9EWuv1iPjg
G3Zyyk3fYE7O0WxsZRqGZ8vPw4TaYAqzoSeJweb80EGaionpnCJDPz1uLmcdnYS3
HvjgLad6yyD/L1GAMhuRIhpOwvCXngqu+oUeJii4hFiSL8SlWS7zt10l/1oseK1p
Fb9zuX9rSIFcQywQE3LK1e+UJnk6KYqfHNkrwr0J1yhTIrvlZxHA3x5C7ubxc9O5
SPS3UW+rReV6hrvii3576kpYBpHjRQ==
=//fQ
-----END PGP PUBLIC KEY BLOCK-----
